icon-themes/breeze_svg/cmd/lc_datefield.svg

<svg viewBox="0 0 24 24" xmlns="http://www.w3.org/2000/svg"><path d="m4 4v16h16v-16h-2v3h-2v-3h-8v3h-2v-3zm1 4h14v11h-14zm2 1v2h2v-2zm4 0v2h2v-2zm4 0v2h2v-2zm-8 3v2h2v-2zm4 0v2h2v-2zm4 0v2h2v-2zm0 3v2h2v-2z" fill="#4d4d4d"/></svg>

<svg xmlns="http://www.w3.org/2000/svg" viewBox="0 0 24 24">
 <path 
     style="fill:#4d4d4d" 
     d="M 4 4 L 4 20 L 20 20 L 20 4 L 18 4 L 18 7 L 16 7 L 16 4 L 8 4 L 8 7 L 6 7 L 6 4 L 4 4 z M 5 8 L 19 8 L 19 19 L 5 19 L 5 8 z M 7 9 L 7 11 L 9 11 L 9 9 L 7 9 z M 11 9 L 11 11 L 13 11 L 13 9 L 11 9 z M 15 9 L 15 11 L 17 11 L 17 9 L 15 9 z M 7 12 L 7 14 L 9 14 L 9 12 L 7 12 z M 11 12 L 11 14 L 13 14 L 13 12 L 11 12 z M 15 12 L 15 14 L 17 14 L 17 12 L 15 12 z M 15 15 L 15 17 L 17 17 L 17 15 L 15 15 z "
     />
 </svg>
